src/cmd/lc_insertcellsright.svg

<svg viewBox="0 0 24 24" xmlns="http://www.w3.org/2000/svg"><path d="m14 8v1 1.28125 2.71875h1v-2.28125l1.71875-1.71875 1-1h-1.4375l-1 1-.28125.28125v-.28125-1zm5 0v1 .28125l-3.71875 3.71875h1.4375l2.28125-2.28125v2.28125h1v-4-1z" fill="#762572"/><path d="m4 4v1 15h1 9v-1h-4v-2h4v-1h-4v-2h4 1 5v-1h-6-4v-2h4v-1h-4v-2h4 6v-1-2-1h-6zm1 1h4v1 1h-1-3zm5 0h4v2h-4zm5 0h4v2h-4zm-10 3h3 1v2h-4zm0 3h4v2h-4zm0 3h4v2h-1-3zm10 1v5l5-2.5zm-10 2h3 1v1.09375.90625h-4z" fill="#232629"/></svg>

<?xml version="1.0" encoding="UTF-8" standalone="no"?>
<svg
   xmlns:dc="http://purl.org/dc/elements/1.1/"
   xmlns:cc="http://creativecommons.org/ns#"
   xmlns:rdf="http://www.w3.org/1999/02/22-rdf-syntax-ns#"
   xmlns:svg="http://www.w3.org/2000/svg"
   xmlns="http://www.w3.org/2000/svg"
   xmlns:sodipodi="http://sodipodi.sourceforge.net/DTD/sodipodi-0.dtd"
   xmlns:inkscape="http://www.inkscape.org/namespaces/inkscape"
   viewBox="0 0 24 24"
   version="1.1"
   id="svg6"
   sodipodi:docname="lc_insertcellsright.svg"
   inkscape:version="0.92.4 (5da689c313, 2019-01-14)">
  <metadata
     id="metadata12">
    <rdf:RDF>
      <cc:Work
         rdf:about="">
        <dc:format>image/svg+xml</dc:format>
        <dc:type
           rdf:resource="http://purl.org/dc/dcmitype/StillImage" />
      </cc:Work>
    </rdf:RDF>
  </metadata>
  <defs
     id="defs10" />
  <sodipodi:namedview
     pagecolor="#ffffff"
     bordercolor="#666666"
     borderopacity="1"
     objecttolerance="10"
     gridtolerance="10"
     guidetolerance="10"
     inkscape:pageopacity="0"
     inkscape:pageshadow="2"
     inkscape:window-width="1920"
     inkscape:window-height="1011"
     id="namedview8"
     showgrid="true"
     inkscape:zoom="39.333333"
     inkscape:cx="14.869715"
     inkscape:cy="9.6105859"
     inkscape:window-x="1920"
     inkscape:window-y="32"
     inkscape:window-maximized="1"
     inkscape:current-layer="svg6">
    <inkscape:grid
       type="xygrid"
       id="grid822" />
  </sodipodi:namedview>
  <path
     d="m14 8v1 1.28125 2.71875h1v-2.28125l1.71875-1.71875 1-1h-1.4375l-1 1-.28125.28125v-.28125-1zm5 0v1 .28125l-3.71875 3.71875h1.4375l2.28125-2.28125v2.28125h1v-4-1z"
     fill="#762572"
     id="path2" />
  <path
     d="M 7,4 C 5,4 4,4 4,6 v 12 c 0,2 1,2 3,2 h 7 v -1 h -4 v -2 h 4 v -1 h -4 v -2 h 4 1 5 v -1 h -6 -4 v -2 h 4 V 10 H 10 V 8 h 4 6 V 7 6 C 20,4 19,4 17,4 H 14 Z M 5,6 C 5,5 6,5 7,5 H 9 V 6 7 H 8 5 Z m 5,-1 h 4 v 2 h -4 z m 5,0 h 2 c 1,0 2,0 2,1 V 7 H 15 Z M 5,8 h 3 1 v 2 H 5 Z m 0,3 h 4 v 2 H 5 Z m 0,3 h 4 v 2 H 8 5 Z m 10,1 v 5 l 5,-2.5 z M 5,17 H 8 9 V 18.09375 19 H 7 C 6,19 5,19 5,18 Z"
     id="path4"
     inkscape:connector-curvature="0"
     style="fill:#232629"
     sodipodi:nodetypes="cccccccccccccccccccccccccccccccccccccccccccccccccccccccccccccccccccccccccccccc" />
</svg>
